assets/icons/qvision/mobile_off.svg

<svg width="24" height="24" viewBox="0 0 24 24" fill="none" xmlns="http://www.w3.org/2000/svg">
<g clip-path="url(#clip0_147_2412)">
<path d="M2.75999 2.49L1.48999 3.76L4.99999 7.27V21C4.99999 22.1 5.89999 23 6.99999 23H17C18.02 23 18.85 22.23 18.98 21.25L20.7 22.97L21.97 21.7L2.75999 2.49ZM6.99999 19V9.27L16.73 19H6.99999ZM17 5V14.17L19 16.17V3C19 1.9 18.1 1 17 1H6.99999C6.14999 1 5.41999 1.54 5.12999 2.3L7.82999 5H17Z" fill="#323232"/>
</g>
<defs>
<clipPath id="clip0_147_2412">
<rect width="24" height="24" fill="white"/>
</clipPath>
</defs>
</svg>

<svg xmlns="http://www.w3.org/2000/svg" height="24" viewBox="0 0 24 24" width="24"><path d="M0 0h24v24H0z" fill="none"/><path d="M2.76 2.49L1.49 3.76 5 7.27V21c0 1.1.9 2 2 2h10c1.02 0 1.85-.77 1.98-1.75l1.72 1.72 1.27-1.27L2.76 2.49zM7 19V9.27L16.73 19H7zM17 5v9.17l2 2V3c0-1.1-.9-2-2-2H7c-.85 0-1.58.54-1.87 1.3L7.83 5H17z"/></svg>
